Dominus_Dark_Funeral/22/apps/flow.svg

<svg xmlns="http://www.w3.org/2000/svg" width="24" height="24"><defs><linearGradient id="a"><stop offset="0"/><stop offset="1" stop-opacity="0"/></linearGradient></defs><path d="M11.52 1.06v1.96l-.8.13a9.13 9.13 0 0 0-7.06 5.68c.04.04.22-.11.39-.28l.35-.38.87.88.88.84.22-.47a6.26 6.26 0 0 1 4.77-3.52h.38l.02.9.04.9 1.64-1.64 1.64-1.64-1.66-1.68zm3.65 2.6c-.06 0 .07.15.26.37l.4.38-.88.87-.85.89.39.17c.52.22 1.37.84 1.88 1.31.87.88 1.74 2.6 1.74 3.5v.37l-.9.04-.89.03 1.62 1.66 1.66 1.63 1.66-1.68 1.68-1.68h-1.96l-.06-.44a9.08 9.08 0 0 0-5.75-7.42zM4.41 9.13l-1.69 1.69-1.66 1.66h1.95l.13.8a9.95 9.95 0 0 0 1 2.98 9.69 9.69 0 0 0 4.7 4.1c.06 0-.07-.2-.29-.4l-.37-.4.88-.88.87-.87-.44-.17a6.37 6.37 0 0 1-3.55-4.59l-.07-.57.92-.03.91-.03-1.63-1.66zm13.44 5.03c-.04 0-.15.18-.22.37a6.62 6.62 0 0 1-1.7 2.23 7.14 7.14 0 0 1-2.84 1.31l-.6.07-.03-.92-.04-.92-1.64 1.63-1.64 1.66 1.66 1.68 1.68 1.67V21l.44-.1a9.08 9.08 0 0 0 7.43-5.74c.02-.04-.16.07-.38.29l-.4.39-.82-.84a7.85 7.85 0 0 0-.9-.84z" fill="#e6e6e6"/></svg>

<?xml version="1.0" encoding="UTF-8" standalone="no"?>
<svg
   xmlns:dc="http://purl.org/dc/elements/1.1/"
   xmlns:cc="http://creativecommons.org/ns#"
   xmlns:rdf="http://www.w3.org/1999/02/22-rdf-syntax-ns#"
   xmlns:svg="http://www.w3.org/2000/svg"
   xmlns="http://www.w3.org/2000/svg"
   xmlns:sodipodi="http://sodipodi.sourceforge.net/DTD/sodipodi-0.dtd"
   xmlns:inkscape="http://www.inkscape.org/namespaces/inkscape"
   width="24"
   height="24"
   version="1.1"
   id="svg11"
   sodipodi:docname="flow.svg"
   inkscape:version="0.92.4 (5da689c313, 2019-01-14)">
  <metadata
     id="metadata15">
    <rdf:RDF>
      <cc:Work
         rdf:about="">
        <dc:format>image/svg+xml</dc:format>
        <dc:type
           rdf:resource="http://purl.org/dc/dcmitype/StillImage" />
        <dc:title></dc:title>
      </cc:Work>
    </rdf:RDF>
  </metadata>
  <sodipodi:namedview
     pagecolor="#ffffff"
     bordercolor="#666666"
     borderopacity="1"
     objecttolerance="10"
     gridtolerance="10"
     guidetolerance="10"
     inkscape:pageopacity="0"
     inkscape:pageshadow="2"
     inkscape:window-width="1138"
     inkscape:window-height="480"
     id="namedview13"
     showgrid="false"
     inkscape:zoom="9.8333333"
     inkscape:cx="1.0677966"
     inkscape:cy="12"
     inkscape:window-x="0"
     inkscape:window-y="25"
     inkscape:window-maximized="0"
     inkscape:current-layer="svg11" />
  <defs
     id="defs7">
    <linearGradient
       id="a">
      <stop
         offset="0"
         id="stop2" />
      <stop
         offset="1"
         stop-opacity="0"
         id="stop4" />
    </linearGradient>
  </defs>
  <path
     d="m 11.52,1.06 v 1.96 l -0.8,0.13 A 9.13,9.13 0 0 0 3.66,8.83 C 3.7,8.87 3.88,8.72 4.05,8.55 L 4.4,8.17 5.27,9.05 6.15,9.89 6.37,9.42 A 6.26,6.26 0 0 1 11.14,5.9 h 0.38 l 0.02,0.9 0.04,0.9 1.64,-1.64 1.64,-1.64 -1.66,-1.68 z m 3.65,2.6 c -0.06,0 0.07,0.15 0.26,0.37 l 0.4,0.38 -0.88,0.87 -0.85,0.89 0.39,0.17 c 0.52,0.22 1.37,0.84 1.88,1.31 0.87,0.88 1.74,2.6 1.74,3.5 v 0.37 l -0.9,0.04 -0.89,0.03 1.62,1.66 1.66,1.63 1.66,-1.68 1.68,-1.68 H 20.98 L 20.92,11.08 A 9.08,9.08 0 0 0 15.17,3.66 Z M 4.41,9.13 2.72,10.82 1.06,12.48 h 1.95 l 0.13,0.8 a 9.95,9.95 0 0 0 1,2.98 9.69,9.69 0 0 0 4.7,4.1 c 0.06,0 -0.07,-0.2 -0.29,-0.4 L 8.18,19.56 9.06,18.68 9.93,17.81 9.49,17.64 A 6.37,6.37 0 0 1 5.94,13.05 L 5.87,12.48 6.79,12.45 7.7,12.42 6.07,10.76 Z m 13.44,5.03 c -0.04,0 -0.15,0.18 -0.22,0.37 a 6.62,6.62 0 0 1 -1.7,2.23 7.14,7.14 0 0 1 -2.84,1.31 l -0.6,0.07 -0.03,-0.92 -0.04,-0.92 -1.64,1.63 -1.64,1.66 1.66,1.68 1.68,1.67 V 21 l 0.44,-0.1 a 9.08,9.08 0 0 0 7.43,-5.74 c 0.02,-0.04 -0.16,0.07 -0.38,0.29 L 19.57,15.84 18.75,15 a 7.85,7.85 0 0 0 -0.9,-0.84 z"
     id="path9"
     inkscape:connector-curvature="0"
     style="fill:#e6e6e6" />
</svg>
